X: 25397
T: March Of The Fairie Army
R: jig
M: 6/8
K: Edorian
EF|:~G3 GFE|~F2 F2 EF|~G3 GFE|{A}B2 {A}B2 EF|
~G3 GFE|~F2 F2 EF|GAG FED|1 E4 EF:|2 E4 FA||
|:~B3 Bcd|~A3 AGF|~G3 GAB|~F2 F2 FA|
~B3 Bcd|~A3 AGF|GAG FED|1 E4 FA:|2 E4 EF||

